X: 28352
T: Muineira De Casu
R: jig
M: 6/8
K: Gmajor
|:DFG|ABA GFG|AFD DFG|ABA GFE|F2D DFG|
ABA GFG|AFD DFG|ABA GFE|D3:|
|:dcB|AFB AFG|AFD DFG|ABA GFE|F2D dcB|
AFB AFG|AFD DFG|ABA GFE|D3:|
|:DEF|E2G GFG|AFD DEF|E2G GFE|F2D DEF|
E2G GFG|AFD DEF|ABA GFE|D3:|

